X:1
T:Title
%%score { 1 | 2 }
L:1/8
M:4/4
K:Eb
V:1 treble nm="Grand Piano"
V:2 bass 
V:1
 z4 z2 z[Q:1/4=100] [B,GB] | [B,GB]2 [B,EG][B,FA] [EGB]2 [EAc][EGB] | %2
 [EGB]2 [DFA]>[EG] [DFA]3 [DFA] | [DFA]2 [DF][EG] [DFA]2 [DAc][DAc] | %4
 [EAc]2 [EGB]>[B,FA] [B,EG]3 [B,GB] | [B,GB]2 [B,EG][B,FA] [EGB]2 [EAc][EGB] | %6
 [EGB]2 [DFA]>[EG] [DFA]3 [DFA] | [Fd]2 [DAc][DAc] [Ac] [GB]2 [EG] | %8
[M:7/8] [EB]2 [DA]>[A,DF] [G,E]3 |[M:1/8] [EGB] |[M:4/4] [EAc]2 [CEA][EAc] [Ece]2 [EBd][EAc] | %11
 [EGB]4 [B,EG] [EGB]2 [EGB] | [EGB]2 [DAc][EGB] [B,FA]2 [B,GB]>[B,FA] |[M:3/4] [B,EG]6 | %14
[M:1/4] [EGB]2 |[M:4/4] [EAc]2 [CEA][EAc] [Ece]2 [EBd][EAc] | [EGB]4 [B,EG] [EGB]2 [EGB] | %17
 [EGB]2 [DFA][EG] [B,FA]2 [B,EG]>[A,DF] |[M:7/8] [G,E]-[G,E]-[G,E]- [G,E]3 z |] %19
V:2
 z4 z2 z E, | E,2 E,E, E,2 E,E, | B,,2 B,,>B,, B,,3 B,, | D,2 B,,B,, B,,2 B,,B,, | %4
 E,2 E,>E, E,3 E, | E,2 E,E, E,2 E,E, | B,,2 B,,>B,, B,,3 B,, | %7
 [B,,B,]2 B,,B,, [E,E] [E,E]2 [E,B,] |[M:7/8] [B,,G,]2 [B,,F,]>B,, E,3 |[M:1/8] E, | %10
[M:4/4] A,2 A,A, A,2 A,A, | E,4 E, E,2 E, | B,,2 B,,B,, B,,2 B,,>B,, |[M:3/4] E,6 |[M:1/4] E,2 | %15
[M:4/4] A,2 A,A, A,2 A,A, | E,4 E, E,2 E, | B,,2 B,,B,, B,,2 B,,>B,, |[M:7/8] E,-E,-E,- E,3 z |] %19

